X:525
T: Maureen Glynn Connolly's
C: BB
M: 6/8
Q: 1/8=320
L: 1/8
R: jig
K: A
D|"A"EAB cBA |"Bm"dcB "A"ecA | "D"fdf "F#m"ecA | "Bm"FBB BAF |
"A"EAB cBA |"Bm"dcB "A"ece |"D"fga "E"ecB | "A"cAG "A"A2 :|
e |"A"aga "Bm7"baf | "F#m"eaf "A"ecA | "A"EAB cBA | "F#m"cBA "E"B2 e |
[1 "A"cBA "Bm"dcB | "A"ece "D"fga | "E7"edc Bcd | "A"cAG "A"A2 :|
[2 "A"aga "Bm"baf | "F#m"eaf "A"ecA | "F#m"EFA "E7"Bcd | "A"cAG "A"A2 |
%%%%%%%%%%%%%%%%%%%%%%%%%%%%%%%%%%%%%%%%%%%
